img/sponsors/sponsors-bdr.svg

<svg height="152" viewBox="0 0 284 152" width="284" xmlns="http://www.w3.org/2000/svg" xmlns:xlink="http://www.w3.org/1999/xlink"><mask id="a" fill="#fff"><path d="m.06.456v18.276h13.7v-18.276z" fill="none"/></mask><mask id="b" fill="#fff"><path d="m141.7095.855h-141.6495v150.877h283.299v-150.877z" fill="none"/></mask><g fill="none" fill-rule="evenodd"><g fill="#1a1919"><path d="m3.117 10.776v5.161h4.462c1.773 0 2.902-.7 2.902-2.581 0-1.773-1.129-2.58-3.091-2.58zm0-7.525v4.731h4.085c1.801 0 2.742-.726 2.742-2.366 0-1.532-.941-2.365-2.742-2.365zm7.229 6.074c2.124.564 3.414 2.096 3.414 4.434 0 3.091-1.936 4.973-5.671 4.973h-8.089v-18.276h7.551c3.736 0 5.672 1.747 5.672 4.676 0 1.989-1.076 3.548-2.877 4.139z" mask="url(#a)" transform="translate(0 133)"/><path d="m19.994 133.456h3.117v11.825c0 2.391.967 4.085 3.924 4.085 3.305 0 3.869-2.095 3.869-4.085v-11.825h3.118v11.825c0 4.73-2.687 6.719-7.014 6.719-4.354 0-7.014-1.989-7.014-6.719z"/><path d="m51.813 151.732-7.928-12.176h-.054v12.176h-3.036v-18.276h3.117l8.089 12.497h.054v-12.497h3.037v18.276z"/><path d="m64.981 136.251v12.686h3.521c3.789 0 4.649-2.715 4.649-6.477 0-3.763-.86-6.209-4.649-6.209zm3.521-2.795c6.154 0 7.927 3.87 7.927 9.004 0 5.212-1.773 9.272-7.927 9.272h-6.639v-18.276z"/><path d="m94.811 148.937v2.795h-12.147v-18.276h12.012v2.795h-8.895v4.622h7.686v2.797h-7.686v5.267z"/><path d="m111.259 146.733c0-1.962-2.366-2.392-4.409-2.957-3.09-.833-5.536-2.526-5.536-5.617 0-3.573 2.903-4.971 6.477-4.971 2.043 0 3.924.268 6.315.966l-.698 2.635c-2.822-.673-4.166-.806-5.617-.806-2.284 0-3.198.994-3.198 2.284 0 1.773 2.338 2.364 4.434 2.876 3.091.698 5.51 2.15 5.51 5.348 0 3.762-2.902 5.509-6.746 5.509-2.042 0-4.38-.268-6.745-.968l.51-2.633c2.849.672 4.784.806 6.235.806 2.285 0 3.468-1.129 3.468-2.472"/><path d="m123.888 136.251v12.686h3.521c3.789 0 4.649-2.715 4.649-6.477 0-3.763-.86-6.209-4.649-6.209zm3.521-2.795c6.154 0 7.928 3.87 7.928 9.004 0 5.212-1.774 9.272-7.928 9.272h-6.638v-18.276z"/><path d="m144.689 142.11h4.085c1.801 0 3.064-.86 3.064-2.903 0-1.988-1.182-2.956-2.956-2.956h-4.193zm3.279 2.795h-3.279v6.827h-3.117v-18.276h7.659c3.736 0 5.832 2.311 5.832 5.751 0 2.527-1.263 4.596-3.844 5.214l4.489 7.311h-3.682z"/><path d="m161.701 133.456h3.117v11.825c0 2.391.967 4.085 3.924 4.085 3.305 0 3.87-2.095 3.87-4.085v-11.825h3.117v11.825c0 4.73-2.687 6.719-7.014 6.719-4.354 0-7.014-1.989-7.014-6.719z"/><path d="m190.187 149.205c1.451 0 2.66-.134 5.483-.806l.699 2.633c-2.393.7-4.301.968-6.451.968-6.342 0-7.954-4.3-7.954-9.54 0-5.134 1.612-9.272 7.954-9.272 2.15 0 4.058.268 6.451.966l-.699 2.635c-2.823-.673-4.032-.806-5.483-.806-3.816 0-4.945 2.714-4.945 6.477 0 4.031 1.129 6.745 4.945 6.745"/><path d="m207.951 143.589-2.608 3.037v5.106h-3.117v-18.276h3.117v8.869l7.607-8.869h3.762l-6.477 7.633 6.558 10.643h-3.898z"/><path d="m234.959 148.937v2.795h-12.147v-18.276h12.013v2.795h-8.896v4.622h7.687v2.797h-7.687v5.267z"/><path d="m244.58 142.11h4.085c1.801 0 3.063-.86 3.063-2.903 0-1.988-1.181-2.956-2.956-2.956h-4.192zm3.278 2.795h-3.278v6.827h-3.117v-18.276h7.659c3.735 0 5.831 2.311 5.831 5.751 0 2.527-1.263 4.596-3.843 5.214l4.488 7.311h-3.681z"/><path d="m273.738 148.937v2.795h-12.147v-18.276h12.013v2.795h-8.895v4.622h7.686v2.797h-7.686v5.267z"/><path d="m280.241 151.732h3.118v-18.276h-3.118z" mask="url(#b)"/><path d="m91.44 46.575c0-10.1-8.187-18.288-18.288-18.288h-53.036c-1.01 0-1.829-.819-1.829-1.829v-21.031c0-2.525-2.046-4.572-4.571-4.572h-9.144c-2.525 0-4.572 2.047-4.572 4.572v68.58c0 2.525 2.047 4.572 4.572 4.572h9.144c2.525 0 4.571-2.047 4.571-4.572v-25.603c0-1.01.819-1.829 1.829-1.829h51.208c1.009 0 1.828.819 1.828 1.829v28.346c0 1.01-.819 1.829-1.828 1.829h-48.481c-2.516 0-4.555 2.04-4.555 4.556v9.176c0 2.516 2.04 4.556 4.555 4.556h50.309c10.101 0 18.288-8.188 18.288-18.288z" mask="url(#b)"/></g><path d="m278.892 28.287h-50.292c-10.1 0-18.288 8.188-18.288 18.288v27.407c0 2.525 2.047 4.572 4.573 4.572h9.143c2.524 0 4.571-2.047 4.571-4.572l.011-25.569c.001-1.01.819-1.827 1.828-1.828l48.454-.01c2.526 0 4.573-2.047 4.573-4.572v-9.144c0-2.525-2.047-4.572-4.573-4.572" fill="#f6bc25"/><path d="m196.595 28.311v-22.884c0-2.525-2.046-4.572-4.571-4.572h-9.143c-2.526 0-4.573 2.047-4.573 4.572v21.055c0 1.01-.818 1.829-1.829 1.829h-53.035c-10.101 0-18.288 8.187-18.288 18.287v31.981c0 10.1 8.187 18.288 18.288 18.288h50.294c2.522 0 4.565-2.044 4.565-4.566v-9.156c0-2.522-2.043-4.566-4.565-4.566h-48.457c-1.01 0-1.828-.819-1.828-1.829v-28.314c0-1.01.818-1.829 1.828-1.829h51.198c1.011 0 1.829.819 1.829 1.829v25.606c0 2.526 2.048 4.574 4.575 4.574h9.141c2.525 0 4.571-2.048 4.571-4.572v-27.437h.001v-18.296z" fill="#d91f43"/><path d="m278.891 78.579h-9.142c-2.526 0-4.573 2.047-4.573 4.572v9.144c0 2.524 2.047 4.571 4.573 4.571h9.142c2.526 0 4.573-2.047 4.573-4.571v-9.144c0-2.525-2.047-4.572-4.573-4.572" fill="#1a1919"/></g></svg>

<?xml version="1.0" encoding="UTF-8"?>
<svg width="284px" height="152px" viewBox="0 0 284 152" version="1.1" xmlns="http://www.w3.org/2000/svg" xmlns:xlink="http://www.w3.org/1999/xlink">
    <!-- Generator: Sketch 46.2 (44496) - http://www.bohemiancoding.com/sketch -->
    <title>bdr_logo_CMYK</title>
    <desc>Created with Sketch.</desc>
    <defs>
        <polygon id="path-1" points="0.06 0.456 0.06 18.732 13.76 18.732 13.76 0.456 0.06 0.456"></polygon>
        <polygon id="path-3" points="141.7095 0.855 0.06 0.855 0.06 151.732 283.359 151.732 283.359 0.855"></polygon>
    </defs>
    <g id="Page-1" stroke="none" stroke-width="1" fill="none" fill-rule="evenodd">
        <g id="bdr_logo_CMYK">
            <g id="Group-3" transform="translate(0.000000, 133.000000)">
                <mask id="mask-2" fill="white">
                    <use xlink:href="#path-1"></use>
                </mask>
                <g id="Clip-2"></g>
                <path d="M3.117,10.776 L3.117,15.937 L7.579,15.937 C9.352,15.937 10.481,15.237 10.481,13.356 C10.481,11.583 9.352,10.776 7.39,10.776 L3.117,10.776 Z M3.117,3.251 L3.117,7.982 L7.202,7.982 C9.003,7.982 9.944,7.256 9.944,5.616 C9.944,4.084 9.003,3.251 7.202,3.251 L3.117,3.251 Z M10.346,9.325 C12.47,9.889 13.76,11.421 13.76,13.759 C13.76,16.85 11.824,18.732 8.089,18.732 L0,18.732 L0,0.456 L7.551,0.456 C11.287,0.456 13.223,2.203 13.223,5.132 C13.223,7.121 12.147,8.68 10.346,9.271 L10.346,9.325 L10.346,9.325 Z" id="Fill-1" fill="#1A1919" mask="url(#mask-2)"></path>
            </g>
            <path d="M19.994,133.456 L23.111,133.456 L23.111,145.281 C23.111,147.672 24.078,149.366 27.035,149.366 C30.34,149.366 30.904,147.271 30.904,145.281 L30.904,133.456 L34.022,133.456 L34.022,145.281 C34.022,150.011 31.335,152 27.008,152 C22.654,152 19.994,150.011 19.994,145.281 L19.994,133.456" id="Fill-4" fill="#1A1919"></path>
            <polyline id="Fill-5" fill="#1A1919" points="51.813 151.732 43.885 139.556 43.831 139.556 43.831 151.732 40.795 151.732 40.795 133.456 43.912 133.456 52.001 145.953 52.055 145.953 52.055 133.456 55.092 133.456 55.092 151.732 51.813 151.732"></polyline>
            <path d="M64.981,136.251 L64.981,148.937 L68.502,148.937 C72.291,148.937 73.151,146.222 73.151,142.46 C73.151,138.697 72.291,136.251 68.502,136.251 L64.981,136.251 Z M68.502,133.456 C74.656,133.456 76.429,137.326 76.429,142.46 C76.429,147.672 74.656,151.732 68.502,151.732 L61.863,151.732 L61.863,133.456 L68.502,133.456 L68.502,133.456 Z" id="Fill-6" fill="#1A1919"></path>
            <polyline id="Fill-7" fill="#1A1919" points="94.811 148.937 94.811 151.732 82.664 151.732 82.664 133.456 94.676 133.456 94.676 136.251 85.781 136.251 85.781 140.873 93.467 140.873 93.467 143.67 85.781 143.67 85.781 148.937 94.811 148.937"></polyline>
            <path d="M111.259,146.733 C111.259,144.771 108.893,144.341 106.85,143.776 C103.76,142.943 101.314,141.25 101.314,138.159 C101.314,134.586 104.217,133.188 107.791,133.188 C109.834,133.188 111.715,133.456 114.106,134.154 L113.408,136.789 C110.586,136.116 109.242,135.983 107.791,135.983 C105.507,135.983 104.593,136.977 104.593,138.267 C104.593,140.04 106.931,140.631 109.027,141.143 C112.118,141.841 114.537,143.293 114.537,146.491 C114.537,150.253 111.635,152 107.791,152 C105.749,152 103.411,151.732 101.046,151.032 L101.556,148.399 C104.405,149.071 106.34,149.205 107.791,149.205 C110.076,149.205 111.259,148.076 111.259,146.733" id="Fill-8" fill="#1A1919"></path>
            <path d="M123.888,136.251 L123.888,148.937 L127.409,148.937 C131.198,148.937 132.058,146.222 132.058,142.46 C132.058,138.697 131.198,136.251 127.409,136.251 L123.888,136.251 Z M127.409,133.456 C133.563,133.456 135.337,137.326 135.337,142.46 C135.337,147.672 133.563,151.732 127.409,151.732 L120.771,151.732 L120.771,133.456 L127.409,133.456 L127.409,133.456 Z" id="Fill-9" fill="#1A1919"></path>
            <path d="M144.689,142.11 L148.774,142.11 C150.575,142.11 151.838,141.25 151.838,139.207 C151.838,137.219 150.656,136.251 148.882,136.251 L144.689,136.251 L144.689,142.11 Z M147.968,144.905 L144.689,144.905 L144.689,151.732 L141.572,151.732 L141.572,133.456 L149.231,133.456 C152.967,133.456 155.063,135.767 155.063,139.207 C155.063,141.734 153.8,143.803 151.219,144.421 L155.708,151.732 L152.026,151.732 L147.968,144.905 L147.968,144.905 Z" id="Fill-10" fill="#1A1919"></path>
            <path d="M161.701,133.456 L164.818,133.456 L164.818,145.281 C164.818,147.672 165.785,149.366 168.742,149.366 C172.047,149.366 172.612,147.271 172.612,145.281 L172.612,133.456 L175.729,133.456 L175.729,145.281 C175.729,150.011 173.042,152 168.715,152 C164.361,152 161.701,150.011 161.701,145.281 L161.701,133.456" id="Fill-11" fill="#1A1919"></path>
            <path d="M190.187,149.205 C191.638,149.205 192.847,149.071 195.67,148.399 L196.369,151.032 C193.976,151.732 192.068,152 189.918,152 C183.576,152 181.964,147.7 181.964,142.46 C181.964,137.326 183.576,133.188 189.918,133.188 C192.068,133.188 193.976,133.456 196.369,134.154 L195.67,136.789 C192.847,136.116 191.638,135.983 190.187,135.983 C186.371,135.983 185.242,138.697 185.242,142.46 C185.242,146.491 186.371,149.205 190.187,149.205" id="Fill-12" fill="#1A1919"></path>
            <polyline id="Fill-13" fill="#1A1919" points="207.951 143.589 205.343 146.626 205.343 151.732 202.226 151.732 202.226 133.456 205.343 133.456 205.343 142.325 212.95 133.456 216.712 133.456 210.235 141.089 216.793 151.732 212.895 151.732 207.951 143.589"></polyline>
            <polyline id="Fill-14" fill="#1A1919" points="234.959 148.937 234.959 151.732 222.812 151.732 222.812 133.456 234.825 133.456 234.825 136.251 225.929 136.251 225.929 140.873 233.616 140.873 233.616 143.67 225.929 143.67 225.929 148.937 234.959 148.937"></polyline>
            <path d="M244.58,142.11 L248.665,142.11 C250.466,142.11 251.728,141.25 251.728,139.207 C251.728,137.219 250.547,136.251 248.772,136.251 L244.58,136.251 L244.58,142.11 Z M247.858,144.905 L244.58,144.905 L244.58,151.732 L241.463,151.732 L241.463,133.456 L249.122,133.456 C252.857,133.456 254.953,135.767 254.953,139.207 C254.953,141.734 253.69,143.803 251.11,144.421 L255.598,151.732 L251.917,151.732 L247.858,144.905 L247.858,144.905 Z" id="Fill-15" fill="#1A1919"></path>
            <polyline id="Fill-16" fill="#1A1919" points="273.738 148.937 273.738 151.732 261.591 151.732 261.591 133.456 273.604 133.456 273.604 136.251 264.709 136.251 264.709 140.873 272.395 140.873 272.395 143.67 264.709 143.67 264.709 148.937 273.738 148.937"></polyline>
            <g id="Group-20">
                <mask id="mask-4" fill="white">
                    <use xlink:href="#path-3"></use>
                </mask>
                <g id="Clip-18"></g>
                <polygon id="Fill-17" fill="#1A1919" mask="url(#mask-4)" points="280.241 151.732 283.359 151.732 283.359 133.456 280.241 133.456"></polygon>
                <path d="M91.44,46.575 C91.44,36.475 83.253,28.287 73.152,28.287 L20.116,28.287 C19.106,28.287 18.287,27.468 18.287,26.458 L18.287,5.427 C18.287,2.902 16.241,0.855 13.716,0.855 L4.572,0.855 C2.047,0.855 0,2.902 0,5.427 L0,74.007 C0,76.532 2.047,78.579 4.572,78.579 L13.716,78.579 C16.241,78.579 18.287,76.532 18.287,74.007 L18.287,48.404 C18.287,47.394 19.106,46.575 20.116,46.575 L71.324,46.575 C72.333,46.575 73.152,47.394 73.152,48.404 L73.152,76.75 C73.152,77.76 72.333,78.579 71.324,78.579 L22.843,78.579 C20.327,78.579 18.288,80.619 18.288,83.135 L18.288,92.311 C18.288,94.827 20.328,96.867 22.843,96.867 L73.152,96.867 C83.253,96.867 91.44,88.679 91.44,78.579 L91.44,46.575" id="Fill-19" fill="#1A1919" mask="url(#mask-4)"></path>
            </g>
            <path d="M278.892,28.287 L228.6,28.287 C218.5,28.287 210.312,36.475 210.312,46.575 L210.312,73.982 C210.312,76.507 212.359,78.554 214.885,78.554 L224.028,78.554 C226.552,78.554 228.599,76.507 228.599,73.982 L228.61,48.413 C228.611,47.403 229.429,46.586 230.438,46.585 L278.892,46.575 C281.418,46.575 283.465,44.528 283.465,42.003 L283.465,32.859 C283.465,30.334 281.418,28.287 278.892,28.287" id="Fill-21" fill="#F6BC25"></path>
            <path d="M196.595,28.311 L196.595,5.427 C196.595,2.902 194.549,0.855 192.024,0.855 L182.881,0.855 C180.355,0.855 178.308,2.902 178.308,5.427 L178.308,26.482 C178.308,27.492 177.49,28.311 176.479,28.311 L123.444,28.311 C113.343,28.311 105.156,36.498 105.156,46.598 L105.156,78.579 C105.156,88.679 113.343,96.867 123.444,96.867 L173.738,96.867 C176.26,96.867 178.303,94.823 178.303,92.301 L178.303,83.145 C178.303,80.623 176.26,78.579 173.738,78.579 L125.281,78.579 C124.271,78.579 123.453,77.76 123.453,76.75 L123.453,48.436 C123.453,47.426 124.271,46.607 125.281,46.607 L176.479,46.607 C177.49,46.607 178.308,47.426 178.308,48.436 L178.308,74.042 C178.308,76.568 180.356,78.616 182.883,78.616 L192.024,78.616 C194.549,78.616 196.595,76.568 196.595,74.044 L196.595,46.607 L196.596,46.607 L196.596,28.311 L196.595,28.311" id="Fill-22" fill="#D91F43"></path>
            <path d="M278.891,78.579 L269.749,78.579 C267.223,78.579 265.176,80.626 265.176,83.151 L265.176,92.295 C265.176,94.819 267.223,96.866 269.749,96.866 L278.891,96.866 C281.417,96.866 283.464,94.819 283.464,92.295 L283.464,83.151 C283.464,80.626 281.417,78.579 278.891,78.579" id="Fill-23" fill="#1A1919"></path>
        </g>
    </g>
</svg>
